X:1
T:Fated Cataclysm
T:Fated Cataclysm
%%score { 1 | 2 } 3 4
L:1/8
Q:1/4=160
M:4/4
K:Bb
V:1 treble nm="Piano" snm="Pno."
V:2 bass 
V:3 bass nm="Marimba" snm="Mrm."
V:4 treble nm="Piano" snm="Pno."
V:1
"^\n""^\n"!ped! (G8 | G8 | G8 | G8)!ped-up! | z8 | z8 | z8 | z8 | g8 | z2 df gfgb | e2 e'2 ef e'2 | %11
 f2 f'2 f^f b/a/^g/f/ | g8 | z2 df gfgb | e2 e'2 ef e'2 | f2 f'2 f^fbg | g8 | z2 df gfgb | %18
 e2 e'2 ef e'2 | f2 f'2 f^f b/a/^g/f/ | g8 | z2 df gfgb | e2 e'2 ef e'2 | f2 f'2 f^fbg | %24
 g3/2b3/2b bb g2 | g3/2b3/2b bb g2 | g3/2b3/2b bb g2 | g3/2b3/2_g f=e _e2 | g3/2b3/2b bb g2 | %29
 g3/2b3/2b bb g2 | g3/2b3/2b bb g2 | g3/2b3/2_g f=e _e2 | g2 g'2 g2 g'2 | d'gdf gbd'b | %34
 e2 e'2 ef e'2 | f2 f'2 f^f b/a/^g/f/ | g2 g'2 g2 g'2 | d'gdf gbd'b | e2 e'2 ef e'2 | %39
 f2 f'2 f^fbg | z8 | z8 | z8 | z8 | g8 | z2 df gfgb | e2 e'2 ef e'2 | f2 f'2 f^f b/a/^g/f/ | g8 | %49
 z2 df gfgb | e2 e'2 ef e'2 | f2 f'2 f^fbg | g8 | z2 df gfgb | e2 e'2 ef e'2 | %55
 f2 f'2 f^f b/a/^g/f/ | g8 | z2 df gfgb | e2 e'2 ef e'2 | f2 f'2 f^fbg | g2 g'2 g2 g'2 | %61
 d'gdf gbd'b | e2 e'2 ef e'2 | f2 f'2 f^f b/a/^g/f/ | g2 g'2 g2 g'2 | d'gdf gbd'b | e2 e'2 ef e'2 | %67
 f2 f'2 f^fbg | g2 g'2 g2 g'2 | d'gdf gbd'b | e2 e'2 ef e'2 | f2 f'2 f^f b/a/^g/f/ | %72
 g2 g'2 g2 g'2 | d'gdf gbd'b | e2 e'2 ef e'2 | f2 f'2 f^fbg | g2 g'2 g2 g'2 | d'gdf gbd'b | %78
 e2 e'2 ef e'2 | f2 f'2 f^f b/a/^g/f/ | g2 g'2 g2 g'2 | d'gdf gbd'b | e2 e'2 ef e'2 | %83
 f2 f'2 f^fbg | g2 g'2 g2 g'2 | d'gdf gbd'b | e2 e'2 ef e'2 | f2 f'2 f^f b/a/^g/f/ | %88
 g2 g'2 g2 g'2 | d'gdf gbd'b | e2 e'2 ef e'2 | f2 f'2 f^fbg | z8 | z8 | z8 | z8 | z8 | z8 | z8 | %99
 z8 |] %100
V:2
 z8 | z8 | z8 | z8 | G,,8- | (G,,8 | (E,,8) | D,,8) |!mp! G,,8- | G,,8 | E,,8 | D,,8 | G,,8- | %13
 G,,8 | E,,8 | D,,8 | G,,3 _E,,3 D,,2- | D,,G,, E,,2 D,,-D,,- D,,2 | G,,3 _E,,3 D,,2- | %19
 D,,G,, E,,2 D,,-D,,- D,,2 | G,,3 _E,,3 D,,2- | D,,G,, E,,2 D,,-D,,- D,,2 | G,,3 _E,,3 D,,2- | %23
 D,,G,, E,,2 D,,-D,,- D,,2 | G,2 G,2 G,2 G,2 | G,2 G,2 G,2 G,2 | G,2 G,2 G,2 G,2 | %27
 G,2 G,2 G,2 G,2 | G,2 G,2 G,2 G,2 | G,2 G,2 G,2 G,2 | G,2 G,2 G,2 G,2 | G,2 G,2 G,2 G,2 | %32
 G,2 G,2 G,2 G,2 | G,2 G,2 G,2 G,2 | G,2 G,2 G,2 G,2 | G,2 G,2 G,2 G,2 | G,2 G,2 G,2 G,2 | %37
 G,2 G,2 G,2 G,2 | G,2 G,2 G,2 G,2 | G,2 G,2 G,2 G,2 | G,,3 _E,,3 D,,2- | %41
 D,,G,, E,,2 D,,-D,,- D,,2 | G,,3 _E,,3 D,,2- | D,,G,, E,,2 D,,-D,,- D,,2 | G,2 G,2 G,2 G,2 | %45
 G,2 G,2 G,2 G,2 | G,2 G,2 G,2 G,2 | G,2 G,2 G,2 G,2 | G,2 G,2 G,2 G,2 | G,2 G,2 G,2 G,2 | %50
 G,2 G,2 G,2 G,2 | G,2 G,2 G,2 G,2 | G,,3 _E,,3 D,,2- | D,,G,, E,,2 D,,-D,,- D,,2 | %54
 G,,3 _E,,3 D,,2- | D,,G,, E,,2 D,,-D,,- D,,2 | G,,3 _E,,3 D,,2- | D,,G,, E,,2 D,,-D,,- D,,2 | %58
 G,,3 _E,,3 D,,2- | D,,G,, E,,2 D,,-D,,- D,,2 | G,2 G,2 G,2 G,2 | G,2 G,2 G,2 G,2 | %62
 G,2 G,2 G,2 G,2 | G,2 G,2 G,2 G,2 | G,2 G,2 G,2 G,2 | G,2 G,2 G,2 G,2 | G,2 G,2 G,2 G,2 | %67
 G,2 G,2 G,2 G,2 | z8 | z8 | G,2 G,2 G,2 G,2 | G,2 G,2 G,2 G,2 | G,2 G,2 G,2 G,2 | %73
 G,2 G,2 G,2 G,2 | G,2 G,2 G,2 G,2 | G,2 G,2 G,2 G,2 | G,2 G,2 G,2 G,2 | G,2 G,2 G,2 G,2 | %78
 G,2 G,2 G,2 G,2 | G,2 G,2 G,2 G,2 | G,2 G,2 G,2 G,2 | G,2 G,2 G,2 G,2 | G,2 G,2 G,2 G,2 | %83
 G,2 G,2 G,2 G,2 | G,2 G,2 G,2 G,2 | G,2 G,2 G,2 G,2 | G,2 G,2 G,2 G,2 | G,2 G,2 G,2 G,2 | %88
 G,2 G,2 G,2 G,2 | G,2 G,2 G,2 G,2 | G,2 G,2 G,2 G,2 | G,2 G,2 G,2 G,2 | G,,3 _E,,3 D,,2- | %93
 D,,G,, E,,2 D,,-D,,- D,,2 | G,,3 _E,,3 D,,2- | D,,G,, E,,2 D,,-D,,- D,,2 | G,,3 _E,,3 D,,2- | %97
 D,,G,, E,,2 D,,-D,,- D,,2 | G,,3 _E,,3 D,,2- | D,,G,, E,,2 D,,-D,,- D,,2 |] %100
V:3
 z8 | z8 | z8 | z8 | z8 | z8 | z8 | z8 | z8 | z8 | z8 | z8 | z8 | z8 | z8 | z8 |!p! G,,8- | G,,8 | %18
 E,,8 | z8 | G,,8- | G,,8 | E,,8 | z8 | G,,3 _E,,3 D,,2- | D,,G,, E,,2 D,,-D,,- D,,2 | %26
 G,,3 _E,,3 D,,2- | D,,G,, E,,2 D,,-D,,- D,,2 | G,,3 _E,,3 D,,2- | D,,G,, E,,2 D,,-D,,- D,,2 | %30
 G,,3 _E,,3 D,,2- | D,,G,, E,,2 D,,-D,,- D,,2 | G,,3 _E,,3 D,,2- | D,,G,, E,,2 D,,-D,,- D,,2 | %34
 G,,3 _E,,3 D,,2- | D,,G,, E,,2 D,,-D,,- D,,2 | G,,3 _E,,3 D,,2- | D,,G,, E,,2 D,,-D,,- D,,2 | %38
 G,,3 _E,,3 D,,2- | D,,G,, E,,2 D,,-D,,- D,,2 | z8 | z8 | z8 | z8 | G,,3 _E,,3 D,,2- | %45
 D,,G,, E,,2 D,,-D,,- D,,2 | G,,3 _E,,3 D,,2- | D,,G,, E,,2 D,,-D,,- D,,2 | G,,3 _E,,3 D,,2- | %49
 D,,G,, E,,2 D,,-D,,- D,,2 | G,,3 _E,,3 D,,2- | D,,G,, E,,2 D,,-D,,- D,,2 | G,,8- | G,,8 | E,,8 | %55
 z8 | G,,8- | G,,8 | E,,8 | z8 | G,,3 _E,,3 D,,2- | D,,G,, E,,2 D,,-D,,- D,,2 | G,,3 _E,,3 D,,2- | %63
 D,,G,, E,,2 D,,-D,,- D,,2 | G,,3 _E,,3 D,,2- | D,,G,, E,,2 D,,-D,,- D,,2 | G,,3 _E,,3 D,,2- | %67
 D,,G,, E,,2 D,,-D,,- D,,2 | z8 | z8 | G,,3 _E,,3 D,,2- | D,,G,, E,,2 D,,-D,,- D,,2 | %72
 G,,3 _E,,3 D,,2- | D,,G,, E,,2 D,,-D,,- D,,2 | G,,3 _E,,3 D,,2- | D,,G,, E,,2 D,,-D,,- D,,2 | %76
 G,,3 _E,,3 D,,2- | D,,G,, E,,2 D,,-D,,- D,,2 | G,,3 _E,,3 D,,2- | D,,G,, E,,2 D,,-D,,- D,,2 | %80
 G,,3 _E,,3 D,,2- | D,,G,, E,,2 D,,-D,,- D,,2 | G,,3 _E,,3 D,,2- | D,,G,, E,,2 D,,-D,,- D,,2 | %84
 G,,3 _E,,3 D,,2- | D,,G,, E,,2 D,,-D,,- D,,2 | G,,3 _E,,3 D,,2- | D,,G,, E,,2 D,,-D,,- D,,2 | %88
 G,,3 _E,,3 D,,2- | D,,G,, E,,2 D,,-D,,- D,,2 | G,,3 _E,,3 D,,2- | D,,G,, E,,2 D,,-D,,- D,,2 | %92
 G,,8- | G,,8 | E,,8 | z8 | G,,8- | G,,8 | E,,8 | z8 |] %100
V:4
 z8 | z8 | z8 | z8 | z8 | z8 | z8 | z8 | z8 | z8 | z8 | z8 | z8 | z8 | z8 | z8 | z8 | z8 | z8 | %19
 z8 | z8 | z8 | z8 | z8 | z8 | z8 | z8 | z8 | z8 | z8 | z8 | z8 |!mp! g3/2b3/2b bb g2 | %33
 g3/2b3/2b bb g2 | g3/2b3/2b bb g2 | g3/2b3/2_g f=e _e2 | g3/2b3/2b bb g2 | g3/2b3/2b bb g2 | %38
 g3/2b3/2b bb g2 | g3/2b3/2_g f=e _e2 | z8 | z8 | z8 | z8 | z8 | z8 | z8 | z8 | z8 | z8 | z8 | z8 | %52
 z8 | z8 | z8 | z8 | z8 | z8 | z8 | z8 | g3/2b3/2b bb g2 | g3/2b3/2b bb g2 | g3/2b3/2b bb g2 | %63
 g3/2b3/2_g f=e _e2 | g3/2b3/2b bb g2 | g3/2b3/2b bb g2 | g3/2b3/2b bb g2 | g3/2b3/2_g f=e _e2 | %68
 z8 | z8 | g3/2b3/2b bb g2 | g3/2b3/2_g f=e _e2 | g3/2b3/2b bb g2 | g3/2b3/2b bb g2 | %74
 g3/2b3/2b bb g2 | g3/2b3/2_g f=e _e2 | g3/2b3/2b bb g2 | g3/2b3/2b bb g2 | g3/2b3/2b bb g2 | %79
 g3/2b3/2_g f=e _e2 | g3/2b3/2b bb g2 | g3/2b3/2b bb g2 | g3/2b3/2b bb g2 | g3/2b3/2_g f=e _e2 | %84
 g3/2b3/2b bb g2 | g3/2b3/2b bb g2 | g3/2b3/2b bb g2 | g3/2b3/2_g f=e _e2 | g3/2b3/2b bb g2 | %89
 g3/2b3/2b bb g2 | g3/2b3/2b bb g2 | g3/2b3/2_g f=e _e2 | z8 | z8 | z8 | z8 | z8 | z8 | z8 | z8 |] %100

